X:1
T:Nora O'Neill  "Arranged by Terry Tully"
M:C
L:1/8
Q:80
C:Traditional Irish
S:Reel
K:HP
|: {ag}a2fadf{g}fa | \
Ad{g}fage{g}e{A}e | \
{g}Aa{g}af{g}dfaf |
{a}geag{a}fd{g}d{c}d :: \
{g}Ad{g}d{c}d{g}Ad{g}fd | \
{g}Ad{g}fage{g}e{A}e |
{g}Ad{g}d{c}d{g}Ad{g}fd | \
{a}geag{a}fd{g}d{c}d :|
